X:17
T: DER MIT DEM SABEL
N: E1013
O: Europa, Mitteleuropa, Deutschland, Schwaben
R: Tanz - Lied, Soldaten - Lied
M: 3/4
L: 1/8
K: G
 | G2GABc | d4B2 |
G2A2G2 | F2AAD2 |
G2GABc | d4B2 |
G2A2F2 | G4z2 |
G2GABc | d4B2 |
G2A2G2 | F2AAD2 |
G2GABc | d4B2 |
G2A2F2 | G4z2 |
A2D2D2 | B3AG2 |
A2D2D2 | B3AG2 |
G2GABc | d4B2 |
G2A2F2 | G4z2

@@@ Tune index: 4701
